src/dsmComponents/Icons/steering-wheel-24px.svg

<?xml version="1.0" encoding="UTF-8"?>
<svg width="24px" height="24px" viewBox="0 0 24 24" version="1.1" xmlns="http://www.w3.org/2000/svg" xmlns:xlink="http://www.w3.org/1999/xlink">
    <!-- Generator: Sketch 60 (88103) - https://sketch.com -->
    <title>steering-wheel-24px</title>
    <desc>Created with Sketch.</desc>
    <defs>
        <path d="M12,0 C5.372583,0 0,5.372583 0,12 C0,18.627417 5.372583,24 12,24 C18.627417,24 24,18.627417 24,12 C24,5.372583 18.627417,0 12,0 Z M12,2.08695652 C16.6697661,2.08798282 20.7055871,5.34793515 21.6886957,9.91304348 L16.6956522,9.91304348 C16.069175,9.85133408 15.4682062,9.63337074 14.9478261,9.27913043 C14.0670839,8.70874957 13.0485746,8.38697275 12,8.34782609 C10.9514254,8.38697275 9.93291612,8.70874957 9.05217391,9.27913043 C8.53179382,9.63337074 7.93082495,9.85133408 7.30434783,9.91304348 L2.31130435,9.91304348 C3.29441291,5.34793515 7.3302339,2.08798282 12,2.08695652 Z M12,13.5652174 C11.1355543,13.5652174 10.4347826,12.8644457 10.4347826,12 C10.4347826,11.1355543 11.1355543,10.4347826 12,10.4347826 C12.8644457,10.4347826 13.5652174,11.1355543 13.5652174,12 C13.5652174,12.8644457 12.8644457,13.5652174 12,13.5652174 Z M2.31130435,14.0869565 L7.30434783,14.0869565 C8.0092101,14.0413558 8.69956878,14.3015216 9.19902361,14.8009764 C9.69847844,15.3004312 9.95864422,15.9907899 9.91304348,16.6956522 L9.91304348,21.6886957 C6.10677584,20.8663762 3.13362385,17.8932242 2.31130435,14.0869565 L2.31130435,14.0869565 Z M14.0869565,21.6886957 L14.0869565,16.6956522 C14.0413558,15.9907899 14.3015216,15.3004312 14.8009764,14.8009764 C15.3004312,14.3015216 15.9907899,14.0413558 16.6956522,14.0869565 L21.6886957,14.0869565 C20.8663762,17.8932242 17.8932242,20.8663762 14.0869565,21.6886957 Z" id="path-1"></path>
    </defs>
    <g id="Final" stroke="none" stroke-width="1" fill="none" fill-rule="evenodd">
        <g id="All-Nucleo-Icons" transform="translate(-608.000000, -7701.000000)">
            <g id="Solo/Nucleo/24px/steering-wheel-24px" transform="translate(608.000000, 7701.000000)">
                <g id="steering-wheel-24px">
                    <mask id="mask-2" fill="white">
                        <use xlink:href="#path-1"></use>
                    </mask>
                    <use id="Mask" fill="#999999" fill-rule="nonzero" xlink:href="#path-1"></use>
                    <g id="colour/neutral/chia" mask="url(#mask-2)" fill="#737373">
                        <g transform="translate(-20.000000, -21.000000)" id="Colour">
                            <rect x="0" y="0" width="64" height="64"></rect>
                        </g>
                    </g>
                </g>
            </g>
        </g>
    </g>
</svg>

<svg width="24" height="24" xmlns="http://www.w3.org/2000/svg" xmlns:xlink="http://www.w3.org/1999/xlink"><defs><path d="M12 0C5.373 0 0 5.373 0 12s5.373 12 12 12 12-5.373 12-12S18.627 0 12 0zm0 2.087a9.913 9.913 0 019.689 7.826h-4.993a3.761 3.761 0 01-1.748-.634c-.88-.57-1.9-.892-2.948-.931a5.823 5.823 0 00-2.948.931 3.761 3.761 0 01-1.748.634H2.311A9.913 9.913 0 0112 2.087zm0 11.478a1.565 1.565 0 110-3.13 1.565 1.565 0 010 3.13zm-9.689.522h4.993a2.455 2.455 0 012.609 2.609v4.993a9.92 9.92 0 01-7.602-7.602zm11.776 7.602v-4.993a2.455 2.455 0 012.609-2.609h4.993a9.92 9.92 0 01-7.602 7.602z" id="steering-wheel-24px_svg__a"/></defs><use fill="#737373" xlink:href="#steering-wheel-24px_svg__a" fill-rule="evenodd"/></svg>
